X: 31
T: Once a Night
R: jig
M: 6/8
L: 1/8
Z: 2010 John Chambers <jc:trillian.mit.edu>
B: Charles & Samuel Thompson eds "Twenty Four Country Dances", London 1774, p.16 #1
K: F
% - - - - - - - - - - - - - - - - - - - - - - - - -
|: f2g afc | Acf Bdf | cba gfe | fcB AGF |\
   f2g afc | Acf Bdf | cba gfe | f3 F3 :|
|: Tc=Bc GFE | F=Bd fga | gec c=Bc | d=BG TG3 |\
   c=BA GFE | DF=B dfa | gec fd=B | c3 C3 |
   c3 Acf | d3 Bdf | cef gab | agf edc |\
   c3 Acf | d3 Bdf | cbg ece | f3 F3 :|
% - - - - - - - - Dance description - - - - - - - -
%%begintext align
%% Cast off & hands 4 round with the 3d Cu. .|. cast up & hands
%% 4 round at top :|. figure down contrary sides then on your
%% own sides .|: lead down 2 Cu. & cast up lead thro' the top
%% & cast up :|:
%%endtext

%%sep 1 1 500
